!! 00000] TT[WS
!!!OTL: Zuo ying
!!!ARE: Asia, China, Shanxi Xingxian
!! Ethnic Group: Han
!! WII, 207 (2)
!!!SCT: J0711
!!!YEM: Copyright 1995, estate of Helmut Schaffrath.
**kern
*ICvox
*Ivox
*M2/4
*k[f#c#]
*D:
{8ee
4ee
8ff#
=1
8ee
8dd
8b
8a
=2
8b
8dd
8ee
8ee
=3
2a}
=4
{8b
8a
8b
8ee
=5
8dd
8b
4a
=6
8g
8a
8dd
8f#
=7
2e}
==
!!!AGN: Xiaodiao. Shidiao
!!!ONB: ESAC (Essen Associative Code) Database: CHINA
!!!AMT: simple duple
!!!AIN: vox
!!!EED: Helmut Schaffrath
!!!EEV: 1.0
*-
